X: 1043
T: You Married My Daughter And Yet You Didn't
B: jims roots
M:C|
R: reel
Q: 1/4=100
K:G
V:1 
|:Bd | "G"g2g2 fgaf |gagd B2d2 | "D"f2f2 efge | fgfd B2d2 |
"G"g2g2 fgaf | gage B2d2 | "D"fgfe dcBA | "G"G2 G2 G2 :|
|:"G"BcdB G2G2 | GBGB d2cB | "D"ABcA F2FF | DFAd e2d2 | "G"BcdB G2G2 |
GBGB d2cB |[1 "D"ABcA FAfe | dcBA "G"G2G2 :|[2 "D"ABcA FAfe | dcBA "G"G4 |]
% abcbook-tune_id 6298c2979635b54abfd6e882


% abcbook-boost 0
% abcbook-tablature 
% abcbook-transpose 
% abcbook-lastupdated 1654178457181
% abcbook-soundfonts 
% abcbook-repeats 1


